static/bg1.svg

<svg xmlns="http://www.w3.org/2000/svg" version="1.1" xmlns:xlink="http://www.w3.org/1999/xlink" xmlns:svgjs="http://svgjs.dev/svgjs" viewBox="0 0 1920 1080"><rect width="1920" height="1080" fill="#6b0044"></rect><g transform="matrix(7.04171909509728e-17,1.15,-1.15,7.04171909509728e-17,1558.6975708007812,-538.3522064208983)"><path d="M0,-1080C10.339625969972099,-992.3767736639795,65.922632910435,-729.3800173656914,62.0377558198326,-554.2606419838772C58.152878729230196,-379.14126660206307,-5.844185817709114,-201.72226985116453,-23.309262543614395,-29.283747709114934C-40.77433926951967,143.15477443293463,-41.217204766904395,291.15849900295734,-42.7527045355991,480.3704908684201C-44.28820430429381,669.5824827338829,-49.134845208706906,915.1478214619791,-32.522261155782644,1105.9882034836617C-15.909677102858382,1296.828585505344,51.50242292264937,1449.7441502457923,56.92279978194648,1625.4127829985152C62.34317664124359,1801.0814157512382,9.48713329699108,2070.9021304997527,0,2160L 1920 2160 L 1920 -1080 Z" fill="url(&quot;#SvgjsLinearGradient1197&quot;)"></path><path d="M384,-1080C370.53099726121116,-981.1714325326064,303.094184751278,-693.890308476505,303.1859835672671,-487.02859519563873C303.2777823832562,-280.1668819147725,359.65378544462783,-53.161861730958066,384.5507928959346,161.1702796851975C409.44780034724135,375.5024211013531,438.626968481453,569.8976201404784,452.56802827510785,798.9642533012947C466.5090880687627,1028.030886462111,479.62515637038155,1308.7307875336446,468.19715165786357,1535.5700786500954C456.7691469453456,1762.4093697665462,398.03285860964394,2055.9283464416826,384,2160L 1920 2160 L 1920 -1080 Z" fill="url(&quot;#SvgjsLinearGradient1198&quot;)"></path><path d="M768,-1080C781.3670643995589,-999.946584271684,860.423909973394,-728.0766827268299,848.2023863973533,-599.6795056301034C835.9808628213126,-471.28232853337704,721.2875185061167,-418.2394175249523,694.670858543756,-309.61693741964126C668.0541985813953,-200.99445731433025,666.3041553084238,-86.7760461147099,688.5024266231891,52.05537500176247C710.7006979379544,190.88679611823483,817.6712804806018,370.6721486304381,827.8604864323478,523.371589279193C838.0496923840938,676.071029927948,762.9802669318988,831.9442220445151,749.6376623336649,968.2520188942921C736.2950577354311,1104.559815744069,738.9457925764182,1221.2224892089384,747.8048588429451,1341.218370377855C756.6639251094721,1461.2142515467717,799.4262030733177,1551.763700970768,802.7920599328268,1688.2273059077922C806.1579167923359,1824.6909108448165,773.7986766554711,2081.3712176512986,768,2160L 1920 2160 L 1920 -1080 Z" fill="url(&quot;#SvgjsLinearGradient1199&quot;)"></path><path d="M1152,-1080C1155.428098874712,-967.3545148361301,1162.1627759818912,-620.2010507706625,1172.5685932482727,-404.12708901678036C1182.9744105146542,-188.0531272628982,1203.222210444483,16.11846842310939,1214.4349035982898,216.44377052329315C1225.6475967520967,416.7690726234769,1253.9850455498677,580.5639100595258,1239.8447521711141,797.8247235843223C1225.7044587923606,1015.0855371091188,1144.2339353542868,1292.979438936126,1129.5931433257679,1520.0086516720721C1114.952351297249,1747.0378644080183,1148.265523887628,2053.3347752786785,1152,2160L 1920 2160 L 1920 -1080 Z" fill="url(&quot;#SvgjsLinearGradient1200&quot;)"></path><path d="M1536,-1080C1533.9983451586043,-975.5712224305851,1513.8729167874124,-658.2165797229193,1523.990070951625,-453.42733458351046C1534.1072251158378,-248.6380894441017,1583.8411249350659,-83.66930053782173,1596.7029249852765,148.73547083645258C1609.564725035487,381.1402422107269,1598.7559318821397,698.9717618168856,1601.160871252889,941.0012936621354C1603.565810623638,1183.030825507385,1621.9927064185863,1397.74621085164,1611.1325612097714,1600.9126619079507C1600.2724160009566,1804.0791129642614,1548.5220935349619,2066.8187769846586,1536,2160L 1920 2160 L 1920 -1080 Z" fill="url(&quot;#SvgjsLinearGradient1201&quot;)"></path></g><defs><linearGradient x1="0.1" y1="0" x2="0" y2="1" id="SvgjsLinearGradient1197"><stop stop-color="#6b0044" offset="0"></stop><stop stop-color="#6b0056" offset="0"></stop></linearGradient><linearGradient x1="0.1" y1="0" x2="0" y2="1" id="SvgjsLinearGradient1198"><stop stop-color="#5b003a" offset="0"></stop><stop stop-color="#5b0049" offset="0.2"></stop></linearGradient><linearGradient x1="0.1" y1="0" x2="0" y2="1" id="SvgjsLinearGradient1199"><stop stop-color="#4b0030" offset="0"></stop><stop stop-color="#4b003c" offset="0.4"></stop></linearGradient><linearGradient x1="0.1" y1="0" x2="0" y2="1" id="SvgjsLinearGradient1200"><stop stop-color="#3b0026" offset="0"></stop><stop stop-color="#3b0030" offset="0.6"></stop></linearGradient><linearGradient x1="0.1" y1="0" x2="0" y2="1" id="SvgjsLinearGradient1201"><stop stop-color="#2b001c" offset="0"></stop><stop stop-color="#2b0023" offset="0.8"></stop></linearGradient></defs></svg>

<svg xmlns="http://www.w3.org/2000/svg" viewBox="0 0 1920 1080"><path fill="#6b0044" d="M0 0h1920v1080H0z"/><path d="M0-1080c10.34 87.623 65.923 350.62 62.038 525.74C58.153-379.142-5.844-201.723-23.31-29.285c-17.464 172.44-17.907 320.443-19.443 509.655-1.535 189.212-6.382 434.778 10.23 625.618 16.613 190.84 84.025 343.756 89.446 519.425C62.343 1801.08 9.487 2070.903 0 2160h1920v-3240Z" fill="url(&quot;#a&quot;)" transform="rotate(90 1048.525 510.173) scale(1.15)"/><path d="M384-1080c-13.469 98.829-80.906 386.11-80.814 592.971.092 206.862 56.468 433.867 81.365 648.2 24.897 214.331 54.076 408.727 68.017 637.793 13.941 229.067 27.057 509.767 15.63 736.606-11.43 226.84-70.166 520.358-84.198 624.43h1536v-3240Z" fill="url(&quot;#b&quot;)" transform="rotate(90 1048.525 510.173) scale(1.15)"/><path d="M768-1080c13.367 80.053 92.424 351.923 80.202 480.32-12.221 128.398-126.914 181.44-153.531 290.063-26.617 108.623-28.367 222.841-6.169 361.672 22.199 138.832 129.17 318.617 139.358 471.317 10.19 152.699-64.88 308.572-78.222 444.88-13.343 136.308-10.692 252.97-1.833 372.966 8.859 119.996 51.621 210.546 54.987 347.01C806.158 1824.69 773.8 2081.37 768 2160h1152v-3240Z" fill="url(&quot;#c&quot;)" transform="rotate(90 1048.525 510.173) scale(1.15)"/><path d="M1152-1080c3.428 112.645 10.163 459.799 20.569 675.873 10.405 216.074 30.653 420.245 41.866 620.57 11.213 200.326 39.55 364.12 25.41 581.382-14.14 217.26-95.611 495.154-110.252 722.184-14.64 227.029 18.673 533.326 22.407 639.991h768v-3240Z" fill="url(&quot;#d&quot;)" transform="rotate(90 1048.525 510.173) scale(1.15)"/><path d="M1536-1080c-2.002 104.429-22.127 421.783-12.01 626.573 10.117 204.789 59.851 369.758 72.713 602.162 12.862 232.405 2.053 550.237 4.458 792.266 2.405 242.03 20.832 456.745 9.972 659.912-10.86 203.166-62.61 465.906-75.133 559.087h384v-3240Z" fill="url(&quot;#e&quot;)" transform="rotate(90 1048.525 510.173) scale(1.15)"/><defs><linearGradient x1=".1" y1="0" x2="0" y2="1" id="a"><stop stop-color="#6b0044" offset="0"/><stop stop-color="#6b0056" offset="0"/></linearGradient><linearGradient x1=".1" y1="0" x2="0" y2="1" id="b"><stop stop-color="#5b003a" offset="0"/><stop stop-color="#5b0049" offset=".2"/></linearGradient><linearGradient x1=".1" y1="0" x2="0" y2="1" id="c"><stop stop-color="#4b0030" offset="0"/><stop stop-color="#4b003c" offset=".4"/></linearGradient><linearGradient x1=".1" y1="0" x2="0" y2="1" id="d"><stop stop-color="#3b0026" offset="0"/><stop stop-color="#3b0030" offset=".6"/></linearGradient><linearGradient x1=".1" y1="0" x2="0" y2="1" id="e"><stop stop-color="#2b001c" offset="0"/><stop stop-color="#2b0023" offset=".8"/></linearGradient></defs></svg>
